icons/night/phoenix.svg

<svg
  viewBox="0 0 16 16"
  xmlns="http://www.w3.org/2000/svg"
  xml:space="preserve"
  style="fill-rule:evenodd;clip-rule:evenodd;stroke-linejoin:round;stroke-miterlimit:2"
><path
    d="m48.067 81.275-1.006-.183c-7.145-1.329-11.66-5.65-13.797-12.447-1.337-4.237 1.087-7.355 5.53-7.56 3.637-.17 6.129 1.922 8.33 4.355 2.839 3.135 5.44 6.486 8.228 9.67 4.014 4.583 8.744 7.534 15.215 6.623 5.801-.816 10.86-3.144 15.258-6.977.661-.576 1.387-1.079 2.085-1.615l.672-.787-1.112.269c-3.694 1.15-7.46 1.533-11.31 1.34-5.823-.292-11.373-1.51-16.338-4.706-4.531-2.918-7.873-6.828-9.46-12.05-1.283-4.22 1.34-7.171 5.715-6.561 1.727.242 3.181 1.02 4.489 2.122 1.062.9 2.083 1.85 3.167 2.722 5.104 4.102 12.235 4.33 18.71-.124-10.648-.048-17.893-5.907-24.256-13.33-2.49-2.905-4.921-5.861-7.464-8.722-4.919-5.533-10.375-10.407-17.844-12.072-9.548-2.122-18.762-.732-27.606 3.316-1.763.807-3.456 1.748-5.273 3.26.9 0 1.39.01 1.88 0 4.46-.117 7.802 1.864 10.212 5.512 1.754 2.655 2.58 5.657 3.21 8.745.935 4.584.45 9.255.991 13.861 1.387 11.837 7.437 20.097 18.701 24.327 4.132 1.552 8.368 2.068 13.072 1.01l.001.002Zm-28.471-54c-1.779.448-3.201-.27-4.666-1.753 2.51-.625 4.724-.868 7.103-.963-.195 1.546-1.107 2.38-2.435 2.716h-.002Z"
    style="fill:#db4b4b;fill-rule:nonzero"
    transform="matrix(.13638 0 0 .1516 1.96 .257)"
  /></svg>

<?xml version="1.0" encoding="UTF-8" standalone="no"?>
<!DOCTYPE svg PUBLIC "-//W3C//DTD SVG 1.1//EN" "http://www.w3.org/Graphics/SVG/1.1/DTD/svg11.dtd">
<svg width="100%" height="100%" viewBox="0 0 16 16" version="1.1" xmlns="http://www.w3.org/2000/svg" xmlns:xlink="http://www.w3.org/1999/xlink" xml:space="preserve" xmlns:serif="http://www.serif.com/" style="fill-rule:evenodd;clip-rule:evenodd;stroke-linejoin:round;stroke-miterlimit:2;">
    <g transform="matrix(0.13638,0,0,0.151592,1.95956,0.257187)">
        <path d="M48.067,81.275L47.061,81.092C39.916,79.763 35.401,75.442 33.264,68.645C31.927,64.408 34.351,61.29 38.794,61.085C42.431,60.915 44.923,63.007 47.124,65.44C49.963,68.575 52.564,71.926 55.352,75.11C59.366,79.693 64.096,82.644 70.567,81.733C76.368,80.917 81.427,78.589 85.825,74.756C86.486,74.18 87.212,73.677 87.91,73.141L88.582,72.354L87.47,72.623C83.776,73.773 80.01,74.156 76.16,73.963C70.337,73.671 64.787,72.453 59.822,69.257C55.291,66.339 51.949,62.429 50.362,57.207C49.079,52.987 51.702,50.036 56.077,50.646C57.804,50.888 59.258,51.666 60.566,52.768C61.628,53.668 62.649,54.618 63.733,55.49C68.837,59.592 75.968,59.82 82.443,55.366C71.795,55.318 64.55,49.459 58.187,42.036C55.697,39.131 53.266,36.175 50.723,33.314C45.804,27.781 40.348,22.907 32.879,21.242C23.331,19.12 14.117,20.51 5.273,24.558C3.51,25.365 1.817,26.306 -0,27.818C0.9,27.818 1.39,27.828 1.88,27.818C6.34,27.701 9.682,29.682 12.092,33.33C13.846,35.985 14.672,38.987 15.302,42.075C16.237,46.659 15.752,51.33 16.293,55.936C17.68,67.773 23.73,76.033 34.994,80.263C39.126,81.815 43.362,82.331 48.066,81.273L48.067,81.275ZM19.596,27.275C17.817,27.723 16.395,27.005 14.93,25.522C17.44,24.897 19.654,24.654 22.033,24.559C21.838,26.105 20.926,26.939 19.598,27.275L19.596,27.275Z" style="fill:rgb(253,79,0);fill-rule:nonzero;"/>
    </g>
</svg>
